X:562
T:Nun hai carretera ensin barru (MQ 031)
R:Xiraldilla
C:Tradicional
S:Msica Tradicional Asturiana, (C) Tello & Tito. Asturies, 2001.
S:http://pagina.de/MusTradAst <telloytito@asturies.org>
N:Otra de las tradicionales canciones que no suelen faltar en todo tipo de eventos festivos.
A:Asturies
Z:Manolo Quirs 031
M:6/8
L:1/8
Q:3/8=90
K:C
G
|G2 E CEG|G2 (3G/_A/G/ F2 G|_A2 A ccc|G2 (3E/G/E/ C2 G|
G2 E CEG|G2 (3G/_A/G/ F2 G|_A2 A ccc|G2 E CEG|
G2 G CF_A|G2 E CEG|G3 C/C/EG|G2 (3G/_A/G/ F2 G|
_A2 A ccc|G>FE GGG|F>ED FFF|E2 (3D/E/D/ C2 G|
_A2 A ccc|G>FE GGG|F>ED FFF|E2 (3D/E/D/ C3-|C6|
W:Nun hai carretera ensin barru,
W:nin prau que nun tenga yerba,
W:nin mociquina d'a quince
W:que nun sea guapa, fea.
W:
W:Adios, Rosina,
W:y adis, clavel
W:que te vengo a ver
W:de maana y tarde;
W:
W:de noche nun puede ser,
W:que me rinde l'amor,
W:que me pega'l to padre. (bis)
W:
